src/images/icons/flower-add-icon.svg

<?xml version="1.0" encoding="UTF-8" standalone="no"?>
<svg width="31px" height="31px" viewBox="0 0 31 31" version="1.1" xmlns="http://www.w3.org/2000/svg" xmlns:xlink="http://www.w3.org/1999/xlink">
    <!-- Generator: Sketch 41.1 (35376) - http://www.bohemiancoding.com/sketch -->
    <title>paper-fab create copy</title>
    <desc>Created with Sketch.</desc>
    <defs>
        <polygon id="path-1" points="0 30.6618184 30.7355139 30.6618184 30.7355139 0.0546619917 0 0.0546619917"></polygon>
    </defs>
    <g id="Page-1" stroke="none" stroke-width="1" fill="none" fill-rule="evenodd">
        <g id="PROFIL_SOUVENIRS" transform="translate(-9.000000, -1114.000000)">
            <g id="5_PART2_PUBLICATION-1-Copy" transform="translate(0.000000, 1105.000000)">
                <g id="ADD-FLOWER" transform="translate(9.000000, 8.000000)">
                    <g id="paper-fab-create-copy">
                        <g id="Page-1" transform="translate(0.000000, 1.000000)">
                            <g id="Group-3" transform="translate(0.000000, 0.036593)">
                                <mask id="mask-2" fill="white">
                                    <use xlink:href="#path-1"></use>
                                </mask>
                                <g id="Clip-2"></g>
                                <path d="M20.7259694,25.2286902 C21.2896303,25.6811345 21.9389518,26.0440573 22.6661629,26.2798612 C25.913945,27.3331312 29.3962093,25.5263653 30.439226,22.2436344 C31.4004676,19.2152323 29.9481235,15.993825 27.1677698,14.6852224 C28.4000891,13.9339166 29.3828361,12.7507902 29.85668,11.2574866 C30.8996967,7.97530321 29.1105838,4.45950597 25.8611752,3.406236 C23.3239782,2.58384223 20.6523266,3.50780328 19.1042922,5.51396225 C18.80945,3.18457661 17.2280729,1.12083547 14.8672571,0.354928799 C11.6173065,-0.69843242 8.13721078,1.10723841 7.09428446,4.39051687 C6.51011199,6.22228675 6.81127933,8.12788226 7.75697911,9.63651673 C4.60055022,8.79286045 1.30704637,10.5795502 0.29746261,13.754691 C-0.745554069,17.0379694 1.04129985,20.5525803 4.29350953,21.6069454 C5.46339058,21.9855641 6.66227694,21.9899443 7.76981012,21.6917216 C7.64285539,21.954081 7.52882203,22.2246533 7.43520986,22.5103739 C6.39228354,25.7925573 8.18130609,29.3071683 11.4307146,30.3616246 C14.6806653,31.4149858 18.1629296,29.6081286 19.2059463,26.3259452 C19.338684,25.9060791 19.6617183,24.2263407 19.7047293,23.8053795" id="Fill-1" fill="#FFFFFF" mask="url(#mask-2)"></path>
                            </g>
                            <path d="M15.6808608,30.08805 C18.1439632,29.3190406 19.705913,27.0537163 19.7632911,24.545105 C21.3368069,26.2722962 23.7658439,27.0542638 26.0578963,26.3392776 C29.2127891,25.3542667 30.9004286,21.9139377 29.8258765,18.6530168 C29.2281502,16.8324714 27.8938153,15.4536021 26.2830715,14.7627074 C29.2437823,13.6600682 30.7959733,10.3408351 29.7575649,7.18677433" id="Fill-4" fill="#FFFFFF"></path>
                        </g>
                        <text id="+" font-family=".SFNSDisplay-Regular, .SF NS Display" font-size="24" font-weight="normal" fill="#FF5A48">
                            <tspan x="9" y="23">+</tspan>
                        </text>
                    </g>
                </g>
            </g>
        </g>
    </g>
</svg>

<?xml version="1.0" encoding="utf-8"?>
<!-- Generator: Adobe Illustrator 16.0.0, SVG Export Plug-In . SVG Version: 6.00 Build 0)  -->
<!DOCTYPE svg PUBLIC "-//W3C//DTD SVG 1.1//EN" "http://www.w3.org/Graphics/SVG/1.1/DTD/svg11.dtd">
<svg version="1.1" id="Calque_1" xmlns="http://www.w3.org/2000/svg" xmlns:xlink="http://www.w3.org/1999/xlink" x="0px" y="0px"
	 width="31px" height="31px" viewBox="0 0 31 31" enable-background="new 0 0 31 31" xml:space="preserve">
<title>paper-fab create copy</title>
<desc>Created with Sketch.</desc>
<g id="Page-1_1_">
	<g id="PROFIL_SOUVENIRS" transform="translate(-9.000000, -1114.000000)">
		<g id="_x35__x5F_PART2_x5F_PUBLICATION-1-Copy" transform="translate(0.000000, 1105.000000)">
			<g id="ADD-FLOWER" transform="translate(9.000000, 8.000000)">
				<g id="paper-fab-create-copy">
					<g id="Page-1" transform="translate(0.000000, 1.000000)">
						<g id="Group-3" transform="translate(0.000000, 0.036593)">
							<g id="Clip-2">
							</g>
							<defs>
								<filter id="Adobe_OpacityMaskFilter" filterUnits="userSpaceOnUse" x="0" y="0.055" width="30.735" height="30.607">
									<feColorMatrix  type="matrix" values="1 0 0 0 0  0 1 0 0 0  0 0 1 0 0  0 0 0 1 0"/>
								</filter>
							</defs>
							<mask maskUnits="userSpaceOnUse" x="0" y="0.055" width="30.735" height="30.607" id="mask-2">
								<g filter="url(#Adobe_OpacityMaskFilter)">
									<polygon id="path-1" fill="#FFFFFF" points="0,30.662 30.735,30.662 30.735,0.055 0,0.055 									"/>
								</g>
							</mask>
							<path id="Fill-1" mask="url(#mask-2)" fill="#FFFFFF" d="M20.727,25.229c0.562,0.452,1.213,0.814,1.939,1.051
								c3.248,1.054,6.73-0.754,7.773-4.036c0.961-3.028-0.491-6.25-3.271-7.559c1.232-0.751,2.215-1.935,2.688-3.428
								c1.043-3.282-0.746-6.798-3.995-7.851c-2.537-0.823-5.209,0.102-6.757,2.108c-0.295-2.33-1.876-4.394-4.237-5.159
								c-3.25-1.054-6.73,0.752-7.773,4.036C6.51,6.222,6.812,8.128,7.757,9.636c-3.156-0.843-6.45,0.943-7.459,4.118
								c-1.043,3.283,0.744,6.798,3.996,7.853c1.17,0.379,2.369,0.383,3.476,0.085c-0.127,0.262-0.241,0.533-0.334,0.818
								c-1.043,3.282,0.746,6.797,3.995,7.852c3.25,1.053,6.732-0.754,7.775-4.036c0.133-0.42,0.456-2.1,0.499-2.521"/>
						</g>
						<path id="Fill-4" fill="#FFFFFF" d="M15.681,30.088c2.464-0.769,4.025-3.034,4.083-5.543c1.573,1.728,4.002,2.51,6.294,1.795
							c3.155-0.985,4.843-4.426,3.769-7.687c-0.598-1.821-1.933-3.2-3.543-3.891c2.961-1.103,4.513-4.422,3.475-7.576"/>
					</g>
					<g enable-background="new    ">
						<path fill="#FF5A48" d="M15.012,22.223v-4.711h-4.676v-1.969h4.676v-4.676h1.992v4.676h4.676v1.969h-4.676v4.711H15.012z"/>
					</g>
				</g>
			</g>
		</g>
	</g>
</g>
</svg>
